imgs/platform-3.svg

<svg width="22" height="16" viewBox="0 0 22 16" fill="none" xmlns="http://www.w3.org/2000/svg">
<path d="M3.23538 0.1829C3.35993 0.0632831 3.52738 -0.00248025 3.70092 7.15852e-05C3.87445 0.00262342 4.03985 0.0732812 4.16076 0.196507C4.29294 0.33294 4.36548 0.515429 4.36265 0.704427C4.35982 0.893425 4.28185 1.07371 4.14563 1.2062C2.36757 2.98659 1.37182 5.3898 1.37501 7.89303C1.37501 10.601 2.51626 13.0449 4.3505 14.7785C4.42133 14.8433 4.47841 14.9214 4.51841 15.0082C4.55841 15.0951 4.58052 15.1889 4.58347 15.2843C4.58641 15.3797 4.57012 15.4747 4.53555 15.5638C4.50099 15.6529 4.44883 15.7343 4.38213 15.8032C4.26385 15.9241 4.10257 15.9946 3.93259 15.9997C3.76261 16.0048 3.59732 15.9441 3.47188 15.8304C2.37446 14.8135 1.49998 13.5841 0.902736 12.2187C0.305488 10.8532 -0.0017795 9.3809 7.7522e-06 7.89303C7.7522e-06 4.88028 1.23751 2.1533 3.23538 0.1829ZM17.8544 1.2062C17.7183 1.07352 17.6406 0.893144 17.638 0.704147C17.6355 0.515151 17.7083 0.332762 17.8406 0.196507C17.9615 0.0736948 18.1266 0.00330098 18.2998 0.0007503C18.473 -0.00180038 18.6401 0.0637005 18.7646 0.1829C19.7915 1.19303 20.6062 2.39442 21.1615 3.71775C21.7168 5.04107 22.0018 6.46013 22 7.89303C22 11.0228 20.6662 13.8451 18.5281 15.8304C18.4027 15.9441 18.2374 16.0048 18.0674 15.9997C17.8974 15.9946 17.7362 15.9241 17.6179 15.8032C17.5514 15.7343 17.4994 15.653 17.465 15.564C17.4305 15.4751 17.4143 15.3802 17.4172 15.285C17.4202 15.1898 17.4422 15.0961 17.4821 15.0094C17.522 14.9226 17.5789 14.8446 17.6495 14.7799C18.5912 13.8915 19.3406 12.8229 19.8521 11.639C20.3637 10.4551 20.6266 9.18062 20.625 7.89303C20.6282 5.38939 19.6325 2.98709 17.8544 1.2062ZM5.6815 2.57242C5.80403 2.45693 5.9679 2.39434 6.13706 2.39842C6.30622 2.40251 6.46681 2.47293 6.5835 2.59419C6.8695 2.87723 6.84063 3.34261 6.55875 3.62837C5.43672 4.76999 4.81004 6.30045 4.8125 7.89303C4.8125 9.64843 5.55913 11.2324 6.75675 12.3496C7.05925 12.6312 7.1005 13.113 6.80488 13.4055C6.69156 13.5221 6.53726 13.5911 6.37395 13.5982C6.21064 13.6053 6.05083 13.5499 5.92763 13.4436C5.14272 12.7428 4.51544 11.8865 4.08646 10.9303C3.65748 9.97404 3.43638 8.93926 3.43751 7.89303C3.43599 6.90317 3.63363 5.92291 4.0189 5.00942C4.40417 4.09593 4.96936 3.26749 5.6815 2.57242ZM15.4412 3.62837C15.1594 3.34261 15.1305 2.87723 15.4165 2.59419C15.5332 2.47293 15.6938 2.40251 15.8629 2.39842C16.0321 2.39434 16.196 2.45693 16.3185 2.57242C17.0305 3.26763 17.5955 4.09609 17.9808 5.00955C18.366 5.92301 18.5638 6.9032 18.5625 7.89303C18.564 8.93939 18.3432 9.97436 17.9145 10.9308C17.4857 11.8873 16.8586 12.7439 16.0737 13.445C15.95 13.5518 15.7894 13.6071 15.6255 13.5995C15.4615 13.5919 15.3068 13.5219 15.1937 13.4042C14.8995 13.113 14.9407 12.6312 15.2432 12.3496C15.858 11.7778 16.3477 11.0873 16.6821 10.3207C17.0165 9.5542 17.1885 8.72795 17.1875 7.89303C17.19 6.30045 16.5633 4.76999 15.4412 3.62837ZM11 6.19207C10.5442 6.19207 10.107 6.37128 9.78466 6.69027C9.46233 7.00926 9.28125 7.44191 9.28125 7.89303C9.28125 8.34416 9.46233 8.7768 9.78466 9.0958C10.107 9.41479 10.5442 9.594 11 9.594C11.4558 9.594 11.893 9.41479 12.2153 9.0958C12.5377 8.7768 12.7187 8.34416 12.7187 7.89303C12.7187 7.44191 12.5377 7.00926 12.2153 6.69027C11.893 6.37128 11.4558 6.19207 11 6.19207Z" fill="#006AFF"/>
</svg>

<svg width="22" height="16" fill="none" xmlns="http://www.w3.org/2000/svg"><path d="M3.235.183a.658.658 0 0 1 .926.014.715.715 0 0 1-.015 1.01 9.445 9.445 0 0 0-2.771 6.686 9.445 9.445 0 0 0 2.976 6.885.72.72 0 0 1 .185.786.717.717 0 0 1-.154.24.656.656 0 0 1-.91.026 10.857 10.857 0 0 1-2.57-3.611A10.76 10.76 0 0 1 0 7.893C0 4.88 1.238 2.153 3.235.183Zm14.62 1.023a.715.715 0 0 1-.014-1.01.658.658 0 0 1 .924-.013 10.846 10.846 0 0 1 2.396 3.535 10.8 10.8 0 0 1-2.633 12.113.657.657 0 0 1-.91-.028.716.716 0 0 1 .032-1.023 9.498 9.498 0 0 0 2.202-3.141 9.412 9.412 0 0 0 .773-3.746 9.445 9.445 0 0 0-2.77-6.687ZM5.68 2.572a.642.642 0 0 1 .902.022c.287.283.258.749-.024 1.034a6.077 6.077 0 0 0 .198 8.721c.302.282.343.764.048 1.056a.64.64 0 0 1-.877.039 7.468 7.468 0 0 1-1.842-2.514 7.4 7.4 0 0 1-.648-3.037 7.39 7.39 0 0 1 .58-2.884 7.453 7.453 0 0 1 1.663-2.437Zm9.76 1.056c-.282-.285-.31-.75-.025-1.034a.641.641 0 0 1 .902-.022 7.458 7.458 0 0 1 1.663 2.438c.385.913.583 1.893.581 2.883a7.4 7.4 0 0 1-.648 3.038 7.468 7.468 0 0 1-1.84 2.514.64.64 0 0 1-.88-.04c-.295-.292-.253-.774.05-1.055a6.105 6.105 0 0 0 1.438-2.03 6.052 6.052 0 0 0 .506-2.427 6.07 6.07 0 0 0-1.747-4.265ZM11 6.192c-.456 0-.893.18-1.215.498a1.692 1.692 0 0 0 0 2.406 1.728 1.728 0 0 0 2.43 0 1.692 1.692 0 0 0 0-2.406A1.728 1.728 0 0 0 11 6.192Z" fill="#006AFF"/></svg>
